!!!!SEGMENT: pl-wn--mus-iii-123-982--003_wieniawski-henryk--l-ecole-moderne-etudes-caprices-pour-violon-seul-op-10-3-l-etude.krn
!!!cenid: 18xx:3816
!!!COM: Wieniawski, Henryk
!!!COM-rismID: pe137176
!!!CDT: 1835/07/10-1880/03/31
!!!CNT:
!!!GTL: L'école moderne.Etudes-caprices pour violon seul op. 10
!!!OTL: 3. L’Etude
!!!PDT:
!!!AGN:
!!!SMS-siglum: PL-Wn
!!!SMS-shelfmark: Mus.III.123.982
!!!SMS-shelfwork: 003 G
!!!SMS-variant:
!!!SMS-altvar:
!!!NIFC-rismSourceID:
!!!NIFC-rismChildID:
!!!NIFC-islandoraID: none
!!!URL-pdf-islandora:
!!!URL-scan: https://polona.pl/item/l-ecole-moderne-etudes-caprices-pour-violon-seul-op-10,MTE2OTgzMTMy/4 @EN{Scan on Polona} @PL{Skany w portalu Polona}
!!!ONB-nifc:
!!!OMD: Moderato.
!!!AIN: 1 violn
!!!key: D
**kern	**fing	**dynam
*I"Violon	*	*
*Ivioln	*	*
*ICstr	*	*
*IGsolo	*	*
*mI"Violino	*	*
*mI'vn	*	*
*clefG2	*	*
*kcancel	*	*
*k[f#c#]	*	*
*D:	*	*
*M2/4	*	*
=1	=1	=1
*^	*^	*
*xywh-6:481,437,3517,1290	*xywh-6:481,437,3517,1290	*	*	*
(16f#/LL	(16d\LL	2	4	.
16g/	16e\	1	3	.
16g#X/	16e#X\	1	3	.
16a/JJ	16f#\JJ	2	4	.
8gn/L	16f#\LL	.	.	.
.	16en\	.	.	.
16b/L	16d\	.	.	.
16a/JJ)	16c#\JJ)	.	.	.
*	*	*v	*v	*
=2	=2	=2	=2
(16f#/LL	(16d\LL	.	.
16gn/	16e\	.	.
16g#X/	16e#X\	.	.
16a/JJ	16f#\JJ	.	.
8gn/L	16f#\LL	.	.
.	16en\	.	.
16b/L	16d\	.	.
16a/JJ)	16c#\JJ)	.	.
=3	=3	=3	=3
(16a/LL	(8d\L	.	.
16ff#/	.	.	.
16ee/	8e\J	.	.
[16dd/JJ	.	.	.
16dd/LL]	[8a\L	.	.
16cc#/J	.	.	.
8b/J)	16a\L]	.	.
.	16g#X\JJ)	.	.
=4	=4	=4	=4
*	*	*^	*
*	*	*below	*	*
!LO:TX:a:i:t=Sul D:dur=2q:ext=ud:problem:text with extention lines:mod=sul D	!	!	!	!
!	!LO:SIC:s=2a	!	!	!
(16a/LL	(2a\	4	0	.
16aa/	.	4	.	.
16ggn/	.	4	.	.
16ee/	.	2	.	.
16cc#/	.	4	.	.
16a/	.	2	.	.
16gn/	.	3	.	.
!LO:SIC:s=16eJJ)	!	!	!	!
16e/JJ))	.	1	.	.
*	*	*v	*v	*
!!LO:LB:g=original
=5	=5	=5	=5
*xywh-6:474,1701,3511,545	*xywh-6:474,1701,3511,545	*	*
!LO:SIC:s=(16aLL	!	!	!
16a/LL	(16fn\LL	.	.
!LO:SIC:s=16b-	!	!	!
(16b-X/	16g\	.	.
16bn/	16g#X\	.	.
16ccn/JJ	[16a\JJ	.	.
8b-X/L	16a\LL]	.	.
.	16gn\	.	.
16dd/L	16f\	.	.
16cc/JJ)	16e\JJ)	.	.
=6	=6	=6	=6
(16a/LL	(16fn\LL	.	.
16b-X/	16g\	.	.
16bn/	16g#X\	.	.
16ccn/JJ	[16a\JJ	.	.
8b-X/L	16a\LL]	.	.
.	16gn\	.	.
16dd/L	16f\	.	.
16cc/JJ)	16e\JJ)	.	.
=7	=7	=7	=7
*	*	*^	*
*	*	*Xbelow	*	*
(16ccn/LL	(8fn\L	1	1	.
16aa/	.	0 4	.	.
16gg/	8g\J	4	1	.
16ffn/JJ	.	.	.	.
16ff/LL	8ccn\L	.	.	.
16ee/J	.	.	.	.
8dd/J)	16cc\L	.	.	.
.	16b\JJ)	.	.	.
=8	=8	=8	=8	=8
(16ccn/	(8cc\L	1	4	.
8dd/L	.	1	.	.
.	16a\L	.	2	.
8dd/J	16f#X\JJ	3	2	.
.	16d\LL	.	.	.
16cccnLL 16cc/)	16e-X\)	.	.	.
16bb-X 16cc`/	16d`\	.	.	.
16aaJJ 16cc`/	16d`\JJ	.	.	.
!!LO:LB:g=original
=9	=9	=9	=9	=9
*xywh-6:423,2151,3678,629	*xywh-6:423,2151,3678,629	*	*	*
(16gg/LL	(16b-XLL 16d 16G\	.	.	.
16aa/	16ccn\	.	.	.
16bb-X/	16dd\	.	.	.
16bbb-X/JJ)	16ddd\JJ)	4	3	.
(16aaa/LL	(16cccn\LL	4	3	.
16fff#/	16aa\	2	1	.
16ddd/	16ff#\	4	3	.
16ccc/JJ)	16dd\JJ)	.	.	.
*	*	*v	*v	*
=10	=10	=10	=10
(16bb-X/LL	(16gg\LL	.	.
16cccn/	16aa\	.	.
16ccc#X/	16aa\	.	.
16ddd/JJ	16bb-\JJ	.	.
8cccn/L	16bb-\LL	.	.
.	16aa\	.	.
8eee-X/J)	16gg\	.	.
.	16ffn\JJ)	.	.
=11	=11	=11	=11
(16ddd/LL	(16bb-X\LL	.	.
16eee-X/	16cccn\	.	.
16eeen/	16ccc#X\	.	.
16fffn/JJ	16ddd\JJ	.	.
8eee/L	16ddd\LL	.	.
.	16ccc#\	.	.
8ggg/J)	16bb-\	.	.
.	16aa\JJ)	.	.
=12	=12	=12	=12
*	*	*^	*
(16fff#X/LL	(16ddd\LL	.	.	.
16aaa/	16cccn\	.	.	.
16ggg/	16bbn\	.	.	.
16fffn/JJ)	16gg\JJ)	3	1	.
(16eee/LL	(16ccc\LL	2	4	.
16ggg/	16bb-X\	.	.	.
16fff/	16aa\	.	.	.
16eee-X/JJ)	16ffn\JJ)	3	1	.
*	*	*v	*v	*
!!LO:LB:g=original
=13	=13	=13	=13
*xywh-6:429,2645,3633,674	*xywh-6:429,2645,3633,674	*	*
16ddd`/LL	16bb-X`\LL	.	.
(16fffn/	(16gg#X\	.	.
16ddd/	16ffn\	.	.
16bbn/J	16dd\J	.	.
16gg#X/L	16bn\L	.	.
16ffn/	16g#X\	.	.
16dd/	16fn\	.	.
16b/JJ	16d\JJ	.	.
=14	=14	=14	=14
16g#X/LL)	16B\LL)	.	.
(16fn/	(16G#X\	.	.
16d/	16G#\	.	.
16f/J	16G#\JJ	.	.
16b/L	16d\LL	.	.
16dd/	16fn\	.	.
16ffn/	16dd\	.	.
16ddd/JJ	16ffn\JJ	.	.
=15	=15	=15	=15
*	*	*^	*
16ddd/LL)	16ff#X\LL)	.	.	.
(16aa/	(16ff#\	1	3	.
16ff#X/	16dd\	3	4	.
16dd/J	16a\JJ	4	0	.
16a/L	16f#\LL	0	2	.
16f#/	16d\	.	.	.
16d/	16A\	.	.	.
16ddd/JJ)	16ff#\JJ)	.	.	.
*	*	*v	*v	*
=16	=16	=16	=16
16ccc#`/LL	16aa`\LL	.	.
(16aa/	(16ee\	.	.
16ee/	16cc#\	.	.
16cc#/	16a\JJ	.	.
16a/	16e\LL	.	.
16e/	16c#\	.	.
16e/	16A\	.	.
32ccc#/JJk)	32a\JJk)	.	.
!	!LO:SIC:s=32ryy	!	!
32rgg;	32rc;	.	.
!!LO:LB:g=original
=17	=17	=17	=17
*xywh-6:468,3158,3543,674	*xywh-6:468,3158,3543,674	*	*
(16f#/LL	(16d\LL	.	.
16g/	16e\	.	.
16g#X/	16e#X\	.	.
16a/JJ	[16f#\JJ	.	.
8gn/L	16f#\LL]	.	.
.	16en\	.	.
16b/L	16d\	.	.
16a/JJ)	16c#\JJ)	.	.
=18	=18	=18	=18
(16f#/LL	(16d\LL	.	.
16g/	16e\	.	.
16g#X/	16e#X\	.	.
16a/JJ	[16f#\JJ	.	.
8gn/L	16f#\LL]	.	.
.	16en\	.	.
16b/L	16d\	.	.
16a/JJ)	16c#\JJ)	.	.
=19	=19	=19	=19
(16a/LL	(8d\L	.	.
16ff#/	.	.	.
16ee/	8e\J	.	.
16dd/JJ	.	.	.
16dd/LL	8a\L	.	.
16cc#/J	.	.	.
8b/J)	16a\L	.	.
.	16g#X\JJ)	.	.
=20	=20	=20	=20
*	*	*^	*
*	*	*below	*	*
!LO:TX:a:i:t=Sul D:dur=2q:ext=ud:problem:text with extention lines:mod=sul D	!	!	!	!
(16a/LL	(2a\	4	0	.
16aa/	.	4	.	.
16ggn/	.	4	.	.
16ee/	.	2	.	.
16cc#/	.	4	.	.
16a/	.	2	.	.
16g/	.	3	.	.
16e/JJ))	.	1	.	.
*	*	*v	*v	*
!!LO:LB:g=original
=21	=21	=21	=21
*xywh-6:648,3704,3421,558	*xywh-6:648,3704,3421,558	*	*
(16a/LL	(16fn\LL	.	.
16b-X/	16g\	.	.
16bn/	16g#X\	.	.
16ccn/JJ	16a\JJ	.	.
8b-X/L	16a\LL	.	.
.	16gn\	.	.
16dd/L	16f\	.	.
16cc/JJ)	16e\JJ)	.	.
=22	=22	=22	=22
(16a/LL	(16fn\LL	.	.
16b-X/	16g\	.	.
16bn/	16g#X\	.	.
16ccn/JJ	[16a\JJ	.	.
8b-X/L	16a\LL]	.	.
.	16gn\	.	.
16dd/L	16fn\	.	.
16cc/JJ)	16e\JJ)	.	.
=23	=23	=23	=23
(16ccn/LL	(8fn\L	.	.
16aa/	.	.	.
16gg/	8g\J	.	.
16ffn/JJ	.	.	.
16ff/LL	8ccn\L	.	.
16ee/J	.	.	.
8dd/J)	16cc\L	.	.
.	16b\JJ)	.	.
=24	=24	=24	=24
(16ccn/KL	(8cc\L	.	.
8dd/	.	.	.
.	16a\L	.	.
8dd/J	16f#X\JJ	.	.
.	16d\LL	.	.
16cccnLL 16cc/)	16e-X\)	.	.
16bb-X 16cc`/	16d`\	.	.
16aaJJ 16cc`/	16d`\JJ	.	.
!!LO:LB:g=original
=25	=25	=25	=25
*xywh-6:628,4128,3383,892	*xywh-6:628,4128,3383,892	*	*
(16gg/LL	(16b-XLL 16d 16G\	.	.
16aa/	16ccn\	.	.
16bb-X/	16dd\	.	.
16bbb-X/JJ)	16ddd\JJ)	.	.
(16aaa/LL	(16cccn\LL	.	.
16fff#/	16aa\	.	.
16ddd/	16ff#\	.	.
16cccn/JJ)	16dd\JJ)	.	.
=26	=26	=26	=26
(16bb-X/LL	(16gg\LL	.	.
16cccn/	16aa\	.	.
16ccc#X/	16aa\	.	.
16ddd/JJ	16bb-X\JJ	.	.
8cccn/L	16bb-\LL	.	.
.	16aa\	.	.
8eee-X/J)	16gg\	.	.
.	16ffn\JJ)	.	.
=27	=27	=27	=27
(16ddd/LL	(16bb-X\LL	.	.
16eee-X/	16cccn\	.	.
16eeen/	16ccc#X\	.	.
16fffn/JJ	16ddd\JJ	.	.
8eeen/L	16ddd\LL	.	.
.	16ccc#\	.	.
8ggg/J)	16bb-\	.	.
.	16aa\JJ)	.	.
=28	=28	=28	=28
(16fff#X/LL	(16ddd\LL	.	.
16aaa/	16cccn\	.	.
16ggg/	16bbn\	.	.
16fffn/JJ)	16gg\JJ)	.	.
(16eee/LL	(16ccc\LL	.	.
16ggg/	16bb-X\	.	.
16fff/	16aa\	.	.
16eee-X/JJ)	16ffn\JJ)	.	.
!!LO:PB:g=original
=29	=29	=29	=29
*xywh-7:147,369,3725,834	*xywh-7:147,369,3725,834	*	*
16ddd/LL	16bb-X`\LL	.	.
(16fffn/	(16gg#X\	.	.
16ddd/	16ffn\	.	.
16bbn/J	16dd\J	.	.
16gg#X/L	16bn\L	.	.
16ffn/	16g#X\	.	.
16dd/	16fn\	.	.
16b/JJ	16d\JJ	.	.
=30	=30	=30	=30
16g#X/LL)	16B\LL)	.	.
(16fn/	(16G#X\	.	.
16d/	16G#\	.	.
16f/J	16G#\J	.	.
16b/L	16d\L	.	.
16dd/	16fn\	.	.
16ffn/	16dd\	.	.
16ddd/JJ	16ffn\JJ	.	.
=31	=31	=31	=31
16ddd/LL)	16ff#X\LL)	.	.
(16aa/	(16ff#\	.	.
16ff#X/	16dd\	.	.
16dd/J	16a\JJ	.	.
16a/L	16f#\LL	.	.
16f#/	16d\	.	.
16d/	16A\	.	.
16ddd/JJ)	16ff#\JJ)	.	.
=32	=32	=32	=32
16ccc#`/LL	16aa`\LL	.	.
(16aa/	(16ee\	.	.
16ee/	16cc#\	.	.
16cc#/J	16a\JJ	.	.
16a/L	16e\LL	.	.
16e/	16c#\	.	.
16e/	16A\	.	.
32ccc#/JJk)	32a\JJk)	.	.
!	!LO:SIC:s=32ryy	!	!
32rgg;	32rc;	.	.
!!LO:LB:g=original
=33||	=33||	=33||	=33||
*xywh-7:154,1133,3578,509	*xywh-7:154,1133,3578,509	*	*
(16fn/LL	(16d\LL	.	.
16g/	16e\	.	.
16g#X/	16e\	.	.
16a/JJ	16fn\JJ	.	.
8gn/L	16f\LL	.	.
.	16e\	.	.
16b-X/L	16d\	.	.
16a/JJ)	16c#\JJ)	.	.
=34	=34	=34	=34
(16fn/LL	(16d\LL	.	.
16g/	16e\	.	.
16g#X/	16e\	.	.
16a/JJ	16fn\JJ	.	.
8gn/L	16f\LL	.	.
.	16e\	.	.
16b-X/L	16d\	.	.
16a/JJ)	16c#\JJ)	.	.
=35	=35	=35	=35
(16a/LL	(8d\L	.	.
16ffn/	.	.	.
16ee/	8e\J	.	.
16dd/JJ	.	.	.
16dd/LL	8a\L	.	.
16ccn/J	.	.	.
8b/J)	16a\L	.	.
.	16g#X\JJ)	.	.
=36	=36	=36	=36
*	*	*^	*
*	*	*Xbelow	*	*
(16a/LL	(8a\L	.	.	.
16ccn/	.	.	.	.
16b/	16gn\L	.	.	.
16a/JJ	[16f#X\JJ	.	.	.
8g/L	16f#\KL]	1	4-3	.
.	8e\	.	4	.
8f#/J)	.	1	.	.
.	16d#X\Jk)	.	3	.
!!LO:LB:g=original
=37	=37	=37	=37	=37
*xywh-7:141,1432,3495,643	*xywh-7:141,1432,3495,643	*	*	*
(16g/LL	(16e\LL	2	4	.
16a/	16f#\	1	3	.
16a#X/	16f#\	1	3	.
16b/JJ	[16g\JJ	.	.	.
8an/L	16g\LL]	.	.	.
.	16f#\	.	.	.
16ccn/L	16e\	.	.	.
16b/JJ)	16d#X\JJ)	.	.	.
*	*	*v	*v	*
=38	=38	=38	=38
(16g/LL	(16e\LL	.	.
16a/	16f#\	.	.
16a#X/	16f#\	.	.
16b/JJ	[16g\JJ	.	.
8an/L	16g\LL]	.	.
.	16f#\	.	.
8ccn/J)	16e\	.	.
.	16dn\JJ)	.	.
=39	=39	=39	=39
.	(<8qG/	.	.
!	!LO:SIC:s=16gLL	!	!
(16b-X/LL	(16g\LL	.	.
16ccn/	16a\	.	.
16cc#X/	16a\	.	.
16dd/J	16b-X\J	.	.
16ee-X/L	16ccn\L	.	.
16ff#/	16a\	.	.
16gg/	16b-\	.	.
!	!LO:SIC:s=16ddJJ)	!	!
16aa/JJ)	16dd\JJ))	.	.
=40	=40	=40	=40
*	*	*^	*
(16bb-X/LL	(16gg\LL	.	.	.
16cccn/	16aa\	.	.	.
16ccc#X/	16aa\	.	.	.
16ddd/JJ	16bb-X\JJ	.	.	.
16eee-X/LL	16cccn\LL	1	3	.
16fff#/	16aa\	.	.	.
16ggg/	16bb-\	.	.	.
16aaa/JJ)	16ddd\JJ)	1	1	.
!!LO:LB:g=original
=41	=41	=41	=41	=41
*xywh-7:122,1884,3413,706	*xywh-7:122,1884,3413,706	*	*	*
(16bbb-X/LL	(16ggg\LL	2	4	.
!LO:TX:a:i:t=a la posit. loco	!	!	!	!
16ggg/	16eee-X\	2	4	.
16eee-/	16gg\	.	.	.
16bb-X/JJ	16gg\JJ	.	.	.
16gg/LL	16b-X\LL	4	3	.
16ee-X/	16g\	2	1	.
16b-X/	16e-X\	1	1	.
16g/JJ)	16B-X\JJ)	.	.	.
=42	=42	=42	=42	=42
(16e-X/LL	(16G\LL	.	.	.
16g/	16c#X\	.	.	.
16b-X/	16g\	.	.	.
16cc#X/JJ	16g\JJ	.	.	.
!LO:TX:a:i:t=Sul A:dur=1q:ext=ud:problem:text with extention lines:mod=sul A	!	!	!	!
16een/LL	16cc#\LL	0	2	.
16gg/	16ee\	2	0	.
16bb-X/	16ee\	4	0	.
16eee/JJ)	16ee\JJ)	4	0	.
*	*	*v	*v	*
=43	=43	=43	=43
16d`/LL	16d`\LL	.	.
(16bn/	(16g\	.	.
16ccn/	16a\	.	.
16cc#X/JJ	16a#X\JJ	.	.
16dd/)	16b\)	.	.
(16bbb/LL	(16gg\LL	.	.
16ccccn/	16aan\	.	.
16cccc#X/JJ)	16aa#X\JJ)	.	.
=44	=44	=44	=44
2dddd/	2bb\	.	.
=45	=45	=45	=45
16d`/LL	16d`\LL	.	.
(16bn/	(16g#X\	.	.
16ccn/	16a\	.	.
16cc#X/JJ	16a#X\JJ	.	.
16dd/)	16b\)	.	.
(16bbb/LL	(16gg#X\LL	.	.
16ccccn/	16aan\	.	.
16cccc#X/JJ)	16aa#X\JJ)	.	.
!!LO:LB:g=original
=46	=46	=46	=46
*xywh-7:128,2349,3495,630	*xywh-7:128,2349,3495,630	*	*
2dddd/	2bb\	.	.
=47	=47	=47	=47
16d`/LL	16d`\LL	.	.
(16bn/	(16g#X\	.	.
16ccn/	16a\	.	.
16dd/JJ	16b\JJ	.	.
16ee/)	16ccn\)	.	.
(16bbb/LL	(16gg#X\LL	.	.
16ccccn/	16aa\	.	.
16dddd/JJ)	16bb\JJ)	.	.
=48	=48	=48	=48
2eeee/	2cccn\	.	.
=49	=49	=49	=49
16d`/LL	16d`\LL	.	.
(16ccn/	(16a\	.	.
16dd/	16b\	.	.
16ee/JJ	16ccn\JJ	.	.
16ff#/)	16a#X\)	.	.
(16cccc#X/LL	(16aa#X\LL	.	.
16dddd/)	16bb\)	.	.
32eeee`/JJk	32ccc#X`\JJk	.	.
!	!LO:MO:mod=32ryy	!	!
32rgg;	32rc;	.	.
*v	*v	*	*
=50	=50	=50
*	*below	*
!LO:TX:t=P:problem:mixed beam	!	!
(24d/LL	0	.
*	*Xbelow	*
24cccn\	1	.
*8va	*	*
24ffff#\)J	4	.
(24ffff#\L	.	.
*X8va	*	*
24ccc\	.	.
24d/JJ)	.	.
*	*below	*
!LO:TX:t=P:problem:mixed beam	!	!
(24d/LL	0	.
*	*Xbelow	*
24ccc\	1	.
*8va	*	*
24ffff#\)J	4	.
(24ffff#\L	.	.
*X8va	*	*
24ccc\	.	.
24d/JJ)	.	.
!!LO:LB:g=original
=51	=51	=51
*xywh-7:116,2884,3489,490	*	*
!LO:TX:t=P:problem:mixed beam	!	!
!LO:TX:b:i:t=segue.:mod=	!	!
(24d/LL	.	.
24bb\	.	.
*8va	*	*
24gggg\)J	.	.
(24gggg\L	.	.
*X8va	*	*
24bb\	.	.
24d/JJ)	.	.
!LO:MO:mod=*null:null	!	!
*Xtuplet	*	*
!LO:TX:t=P:problem:mixed beam	!	!
(24d/LL	.	.
24bb\	.	.
*8va	*	*
24gggg\)J	.	.
(24gggg\L	.	.
*X8va	*	*
24bb\	.	.
24d/JJ)	.	.
=52	=52	=52
!LO:TX:t=P:problem:mixed beam	!	!
(24d/LL	.	.
24bb-X\	.	.
*8va	*	*
24eeee\)J	.	.
(24eeee\L	.	.
*X8va	*	*
24bb-\	.	.
24d/JJ)	.	.
!LO:TX:t=P:problem:mixed beam	!	!
(24d/LL	.	.
24bb-\	.	.
*8va	*	*
24eeee\)J	.	.
(24eeee\L	.	.
*X8va	*	*
24bb-\	.	.
24d/JJ)	.	.
=53	=53	=53
!LO:TX:t=P:problem:mixed beam	!	!
(24d/LL	.	.
24aa\	.	.
*8va	*	*
24ffff#\)J	.	.
(24ffff#\L	.	.
*X8va	*	*
24aa\	.	.
24d/JJ)	.	.
!LO:TX:t=P:problem:mixed beam	!	!
(24d/LL	.	.
24aa\	.	.
*8va	*	*
24ffff#\)J	.	.
(24ffff#\L	.	.
*X8va	*	*
24aa\	.	.
24d/JJ)	.	.
=54	=54	=54
!LO:TX:t=P:problem:mixed beam	!	!
(24d/LL	.	.
24gg#X\	.	.
*8va	*	*
24dddd\)J	.	.
(24dddd\L	.	.
*X8va	*	*
24gg#\	.	.
24d/JJ)	.	.
!LO:TX:t=P:problem:mixed beam	!	!
(24d/LL	.	.
24gg#\	.	.
*8va	*	*
24dddd\)J	.	.
(24dddd\L	.	.
*X8va	*	*
24gg#\	.	.
24d/JJ)	.	.
!!LO:LB:g=original
=55	=55	=55
*xywh-7:154,3285,3451,471	*	*
!LO:TX:t=P:problem:mixed beam	!	!
(24d/LL	.	.
24ggn\	.	.
*8va	*	*
24eeee\)J	.	.
(24eeee\L	.	.
*X8va	*	*
24gg\	.	.
24d/JJ)	.	.
!LO:TX:t=P:problem:mixed beam	!	!
(24d/LL	.	.
24gg\	.	.
*8va	*	*
24eeee\)J	.	.
(24eeee\L	.	.
*X8va	*	*
24gg\	.	.
24d/JJ)	.	.
=56	=56	=56
!LO:TX:t=P:problem:mixed beam	!	!
(24d/LL	.	.
24gg\	.	.
24bbb\)J	.	.
(24bbb\L	.	.
24gg\	.	.
24d/JJ)	.	.
!LO:TX:t=P:problem:mixed beam	!	!
(24d/LL	.	.
24gg\	.	.
24cccc#\)J	.	.
(24cccc#\L	.	.
24gg\	.	.
24d/JJ)	.	.
=57	=57	=57
!LO:TX:t=P:problem:mixed beam	!	!
(24d/LL	.	.
24ff#\	.	.
*8va	*	*
24dddd\)J	.	.
(24dddd\L	.	.
*X8va	*	*
24ff#\	.	.
24d/JJ)	.	.
!LO:TX:t=P:problem:mixed beam	!	!
(24d/LL	.	.
24ff#\	.	.
*8va	*	*
24dddd\)J	.	.
(24dddd\L	.	.
*X8va	*	*
24ff#\	.	.
24d/JJ)	.	.
=58	=58	=58
!LO:TX:t=P:problem:mixed beam	!	!
(24d/LL	.	.
24cccn\	.	.
*8va	*	*
24ffff#\)J	.	.
(24ffff#\L	.	.
*X8va	*	*
24ccc\	.	.
24d/JJ)	.	.
!LO:TX:t=P:problem:mixed beam	!	!
(24d/LL	.	.
24ccc\	.	.
*8va	*	*
24aaaa\)J	.	.
(24aaaa\L	.	.
*X8va	*	*
24ccc\	.	.
24d/JJ)	.	.
!!LO:LB:g=original
=59	=59	=59
*xywh-7:160,3718,3527,503	*	*
!LO:TX:t=P:problem:mixed beam	!	!
(24d/LL	.	.
24bb\	.	.
*8va	*	*
24aaaa\)J	.	.
(24aaaa\L	.	.
*X8va	*	*
24bb\	.	.
24d/JJ)	.	.
!LO:TX:t=P:problem:mixed beam	!	!
(24d/LL	.	.
24bb\	.	.
*8va	*	*
24gggg#X\)J	.	.
(24gggg#\L	.	.
*X8va	*	*
24bb\	.	.
24d/JJ)	.	.
=60	=60	=60
!LO:TX:t=P:problem:mixed beam	!	!
(24d/LL	.	.
24bb-X\	.	.
*8va	*	*
24eeee\)J	.	.
(24eeee\L	.	.
*X8va	*	*
24bb-\	.	.
24d/JJ)	.	.
!LO:TX:t=P:problem:mixed beam	!	!
(24d/LL	.	.
24bb-\	.	.
*8va	*	*
24ggggn\)J	.	.
(24gggg\L	.	.
*X8va	*	*
24bb-\	.	.
24d/JJ)	.	.
=61	=61	=61
!LO:TX:t=P:problem:mixed beam	!	!
(24d/LL	.	.
24aa\	.	.
*8va	*	*
24gggg\)J	.	.
(24gggg\L	.	.
*X8va	*	*
24aa\	.	.
24d/JJ)	.	.
!LO:TX:t=P:problem:mixed beam	!	!
(24d/LL	.	.
24aa\	.	.
*8va	*	*
24ffff#\)J	.	.
(24ffff#\L	.	.
*X8va	*	*
24aa\	.	.
24d/JJ)	.	.
=62	=62	=62
!LO:TX:t=P:problem:mixed beam	!	!
(24d/LL	.	.
24gg#X\	.	.
*8va	*	*
24dddd\)J	.	.
(24dddd\L	.	.
*X8va	*	*
24gg#\	.	.
24d/JJ)	.	.
!LO:TX:t=P:problem:mixed beam	!	!
(24d/LL	.	.
24gg#\	.	.
*8va	*	*
24ffff#\)J	.	.
(24ffff#\L	.	.
*X8va	*	*
24gg#\	.	.
24d/JJ)	.	.
!!LO:LB:g=original
=63	=63	=63
*xywh-7:154,4151,3451,783	*	*
!LO:TX:t=P:problem:mixed beam	!	!
(24d/LL	.	.
24ggn\	.	.
*8va	*	*
24ffff#\)J	.	.
(24ffff#\L	.	.
*X8va	*	*
24gg\	.	.
24d/JJ)	.	.
!LO:TX:t=P:problem:mixed beam	!	!
(24d/LL	.	.
24gg\	.	.
*8va	*	*
24eeee\)J	.	.
(24eeee\L	.	.
*X8va	*	*
24gg\	.	.
24d/JJ)	.	.
=64	=64	=64
!LO:TX:t=P:problem:mixed beam	!	!
(24d/LL	.	.
24gg\	.	.
24bbb\)J	.	.
(24bbb\L	.	.
24gg\	.	.
24d/JJ)	.	.
!LO:TX:t=P:problem:mixed beam	!	!
(24d/LL	.	.
24gg\	.	.
24cccc#\)J	.	.
(24cccc#\L	.	.
24gg\	.	.
24d/JJ)	.	.
=65	=65	=65
!LO:TX:t=P:problem:mixed beam	!	!
(24d/LL	.	.
24ff#\	.	.
24dddd\)J	.	.
(24dddd\L	.	.
24ff#\	.	.
24d/JJ)	.	.
!LO:TX:t=P:problem:mixed beam	!	!
(24d/LL	.	.
24ff#\	.	.
24dddd\)J	.	.
(24dddd\L	.	.
24ff#\	.	.
24d/JJ)	.	.
=66	=66	=66
!LO:TX:t=P:problem:mixed beam	!	!
(24d/LL	.	.
24gg\	.	.
*8va	*	*
24eeee-X\)J	.	.
(24eeee-\L	.	.
*X8va	*	*
24gg\	.	.
24d/JJ)	.	.
!LO:TX:t=P:problem:mixed beam	!	!
(24d/LL	.	.
24gg\	.	.
*8va	*	*
24cccc#X\)J	.	.
(24cccc#\L	.	.
*X8va	*	*
24gg\	.	.
24d/JJ)	.	.
!!LO:PB:g=original
=67	=67	=67
*xywh-8:494,462,3543,661	*	*
!LO:TX:t=P:problem:mixed beam	!	!
(24d/LL	.	.
24ff#\	.	.
*8va	*	*
24dddd\)J	.	.
(24dddd\L	.	.
*X8va	*	*
24ff#\	.	.
24d/JJ)	.	.
!LO:TX:t=P:problem:mixed beam	!	!
(24d/LL	.	.
24ff#\	.	.
*8va	*	*
24dddd\)J	.	.
(24dddd\L	.	.
*X8va	*	*
24ff#\	.	.
24d/JJ)	.	.
=68	=68	=68
!LO:TX:t=P:problem:mixed beam	!	!
(24d/LL	.	.
24gg\	.	.
*8va	*	*
24eeee-X\)J	.	.
(24eeee-\L	.	.
*X8va	*	*
24gg\	.	.
24d/JJ)	.	.
!LO:TX:t=P:problem:mixed beam	!	!
(24d/LL	.	.
24gg\	.	.
*8va	*	*
24cccc#X\)J	.	.
(24cccc#\L	.	.
*X8va	*	*
24gg\	.	.
24d/JJ)	.	.
=69	=69	=69
!LO:TX:t=P:problem:mixed beam	!	!
(24d/LL	.	.
24ff#\	.	.
*8va	*	*
24dddd\)J	.	.
(24dddd\L	.	.
*X8va	*	*
24ff#\	.	.
24d/JJ)	.	.
!LO:TX:t=P:problem:mixed beam	!	!
(24d/LL	.	.
24ff#\	.	.
*8va	*	*
24dddd\)J	.	.
(24dddd\L	.	.
*X8va	*	*
24ff#\	.	.
24d/JJ)	.	.
=70	=70	=70
!LO:TX:t=P:problem:mixed beam	!	!
(24d/LL	.	.
24ff#\	.	.
*8va	*	*
24dddd\)J	.	.
(24dddd\L	.	.
*X8va	*	*
24ff#\	.	.
24d/JJ)	.	.
!LO:TX:t=P:problem:mixed beam	!	!
(24d/LL	.	.
24ff#\	.	.
*8va	*	*
24dddd\)J	.	.
(24dddd\L	.	.
*X8va	*	*
24ff#\	.	.
24d/JJ)	.	.
!!LO:LB:g=original
=71	=71	=71
*xywh-8:494,1091,3562,532	*	*
*	*below	*
(32dd\LLL	3 0	.
32aa\	3 0	.
32ff#\	1	.
32dddd\)JJ	4	.
(32dddd\LL	.	.
32ff#\	.	.
32aa\	.	.
32dd\JJJ)	.	.
(32dd\LLL	.	.
32aa\	.	.
32ff#\	.	.
32dddd\)JJ	.	.
(32dddd\LL	.	.
32ff#\	.	.
32aa\	.	.
32dd\JJJ)	.	.
=72	=72	=72
(32dd\LLL	.	.
32aa\	.	.
32ff#\	.	.
32dddd\)JJ	.	.
(32dddd\LL	.	.
32ff#\	.	.
32aa\	.	.
32dd\JJJ)	.	.
(32dd\LLL	.	.
32aa\	.	.
32ff#\	.	.
32dddd\)JJ	.	.
(32dddd\LL	.	.
32ff#\	.	.
32aa\	.	.
32dd\JJJ)	.	.
=73	=73	=73
8dd;\	.	.
8r	.	.
4r	.	.
!!LO:LB:g=original
=74||	=74||	=74||
!!!key: G
*k[f#]	*	*
*^	*	*
*xywh-8:487,1566,3505,571	*xywh-8:487,1566,3505,571	*	*
(16b/LL	(16g\LL	.	.
16cc/	16a\	.	.
16cc#X/	16a#X\	.	.
16dd/JJ	[16b\JJ	.	.
8ccn/L	16b\LL]	.	.
.	16a#\	.	.
16ee/L	16g\	.	.
16dd/JJ)	16f#\JJ)	.	.
=75	=75	=75	=75
(16b/LL	(16g\LL	.	.
16cc/	16a\	.	.
16cc#X/	16a#X\	.	.
16dd/JJ	[16b\JJ	.	.
8ccn/L	16b\LL]	.	.
.	16a#\	.	.
16ee/L	16g\	.	.
16dd/JJ)	16f#\JJ)	.	.
=76	=76	=76	=76
(16dd/LL	(8g\L	.	.
16bb/	.	.	.
16aa/	8a\J	.	.
[16gg/JJ	.	.	.
16gg/LL]	8dd\L	.	.
16ff#/J	.	.	.
8ee/J)	16dd\L	.	.
.	16cc#X\JJ)	.	.
=77	=77	=77	=77
(16dd/LL	(16dd\LL	.	.
16ffn/	16a\	.	.
16ee/	16g#X\	.	.
[16dd/JJ	16e\JJ	.	.
16dd/LL]	8a\L	.	.
16ccn/J	.	.	.
8b/J)	16a\L	.	.
.	16g#\JJ)	.	.
!!LO:LB:g=original
=78	=78	=78	=78
*xywh-8:461,1990,3562,590	*xywh-8:461,1990,3562,590	*	*
(16cc/LL	(16a\LL	.	.
16dd/	16b\	.	.
16dd#X/	16b\	.	.
16ee/JJ	[16cc\JJ	.	.
8ddn/L	16cc\LL]	.	.
.	16b\	.	.
16ffn/L	16a\	.	.
16ee/JJ)	16g#X\JJ)	.	.
=79	=79	=79	=79
!LO:SIC:s=(16ccLL	!	!	!
16cc/LL	(16a\LL	.	.
16dd/	16b\	.	.
16dd#X/	16b\	.	.
16ee/JJ	[16cc\JJ	.	.
8ddn/L	16cc\LL]	.	.
.	16b\	.	.
!LO:SIC:s=8ffJ)	!	!	!
8ffn/J	16a\	.	.
.	16g#X\JJ)	.	.
=80	=80	=80	=80
(16ee/LL	(16cc\LL	.	.
16ffn/	16dd\	.	.
16ff#X/	16dd#X\	.	.
16gg/JJ	16ee\JJ	.	.
16aa/LL	16ffn\LL	.	.
16bb/	16dd#\	.	.
16ccc/	16ee\	.	.
16ddd/JJ)	16gg\JJ)	.	.
=81	=81	=81	=81
*	*	*^	*
*	*	*Xbelow	*	*
(16eee-X/LL	(16ccc\LL	2	4	.
16ccc/	16aa-X\	2	4	.
16aa-/	16cc\	4	3	.
16ee-X/J	16cc\J	1	3	.
16cc/L	16a-X\L	2	4	.
16a-/	16c\	4	3	.
16e-X/	16c\	.	.	.
16e-/JJ)	16A-X\JJ)	.	.	.
!!LO:LB:g=original
=82	=82	=82	=82	=82
*xywh-8:474,2420,3485,584	*xywh-8:474,2420,3485,584	*	*	*
16bb-X 16b-X`/	16g 16B-X\	.	.	.
!LO:TX:b:i:t=à la position.	!	!	!	!
(16bbb-X/LL	(16bb-X\LL	.	.	.
16ggg/	16bb-\	.	.	.
16eee-X/J	16gg\J	.	.	.
16bb-/L	16gg\L	.	.	.
16gg/	16b-\	4	3	.
16ee-X/	16g\	2	1	.
16b-/JJ)	16e-X\JJ)	.	.	.
*	*	*v	*v	*
=83	=83	=83	=83
16bbn 16dd`/	16fn 16G#X\	.	.
(16ggg#X/LL	(16bbn\LL	.	.
16fffn/	16gg#X\	.	.
16ddd/J	16ffn\J	.	.
16bb/L	16dd\L	.	.
16gg#/	16bn\	.	.
16ffn/	16g#X\	.	.
16dd/JJ)	16f\JJ)	.	.
=84	=84	=84	=84
*	*	*^	*
16aa 16dd`/	16fn 16A\	.	.	.
!LO:TX:b:i:t=à la position.	!	!	!	!
(16aaa/LL	(16aa\LL	.	.	.
16fffn/	16aa\	.	.	.
16ddd/J	16ffn\J	.	.	.
16aa/L	16ff\L	.	.	.
16ffn/	16a\	3	0	.
16a/	16fn\	0	2	.
16a/JJ)	16d\JJ)	.	.	.
=85	=85	=85	=85	=85
8aa 8dd`/	8e 8A\	.	.	.
!	!LO:SIC:s=(8aaL	!	!	!
(8aaa/L	8aa\L	4	1	.
8aa/	8ee\	1	0	.
!	!LO:SIC:s=8ddJ)	!	!	!
8ee/J)	8dd\J	0	3	.
*	*	*v	*v	*
!!LO:LB:g=original
=86	=86	=86	=86
*xywh-8:481,2889,3492,603	*xywh-8:481,2889,3492,603	*	*
(>8qcc#X 8qe 8qA/	.	.	.
(<32aa/LLL	2a\	.	.
32gg#X/	.	.	.
32ggn/	.	.	.
32ff#/	.	.	.
32ee/	.	.	.
32dd/	.	.	.
32cc#/	.	.	.
32b/	.	.	.
32a/)JJ	.	.	.
(<32g#X/LL	.	.	.
32gn/	.	.	.
32f#/	.	.	.
32e/	.	.	.
32d/	.	.	.
32c#X/	.	.	.
32B/JJJ))	.	.	.
=87	=87	=87	=87
*	*	*^	*
!	!LO:SIC:s=(8AL	!	!	!
(8a/L	8A\L	.	.	.
!	!LO:SIC:s=8B-J)	!	!	!
8a/J)	8B-X\J	.	.	.
!LO:TX:t=P:problem:up-bow symbol inverted:global	!	!	!	!
!	!LO:SIC:s=(8BL	!	!	!
(8.av/L	8Bn\L	.	.	.
!	!LO:SIC:s=8c#J)	!	!	!
.	8c#X\J	.	.	.
16g/Jk)	.	2	.	.
*	*	*v	*v	*
*v	*v	*	*
=88||	=88||	=88||
!!!OMD: Tempo 1°.
!!!key: D
*k[f#c#]	*	*
*^	*	*
(16f#/LL	(16d\LL	.	.
16g/	16e\	.	.
16g#X/	16e#X\	.	.
16a/JJ	16f#\JJ	.	.
8gn/L	16f#\LL	.	.
.	16en\	.	.
16b/L	16d\	.	.
16a/JJ)	16c#\JJ)	.	.
=89	=89	=89	=89
(16f#/LL	(16d\LL	.	.
16g/	16e\	.	.
16g#X/	16e#X\	.	.
16a/JJ	16f#\JJ	.	.
8gn/L	16f#\LL	.	.
.	16en\	.	.
16b/L	16d\	.	.
16a/JJ)	16c#\JJ)	.	.
!!LO:LB:g=original
=90	=90	=90	=90
*xywh-8:481,3364,3485,532	*xywh-8:481,3364,3485,532	*	*
(16a/LL	(8d\L	.	.
16ff#/	.	.	.
16ee/	8e\J	.	.
[16dd/JJ	.	.	.
16dd/LL]	[8a\L	.	.
16cc#/J	.	.	.
8b/J)	16a\L]	.	.
.	16g#X\JJ)	.	.
=91	=91	=91	=91
!LO:TX:a:i:t=Sul D:dur=2q:ext=ud:problem:text with extention lines:mod=sul D	!	!	!
(16a/LL	2a\	.	.
16aa/	.	.	.
16ggn/	.	.	.
16ee/	.	.	.
16cc#/	.	.	.
16a/	.	.	.
16gn/	.	.	.
16e/JJ)	.	.	.
=92	=92	=92	=92
(16a/LL	(16fn\LL	.	.
16b-X/	16g\	.	.
16bn/	16g#X\	.	.
16ccn/JJ	16a\JJ	.	.
8b-X/L	16a\LL	.	.
.	16gn\	.	.
16dd/L	16f\	.	.
16cc/JJ)	16e\JJ)	.	.
=93	=93	=93	=93
(16a/LL	(16fn\LL	.	.
16b-X/	16g\	.	.
16bn/	16g#X\	.	.
16ccn/JJ	16a\JJ	.	.
8b-X/L	16a\LL	.	.
.	16gn\	.	.
16dd/L	16f\	.	.
16cc/JJ)	16e\JJ)	.	.
!!LO:LB:g=original
=94	=94	=94	=94
*xywh-8:468,3723,3537,667	*xywh-8:468,3723,3537,667	*	*
(16ccn/LL	(8fn\L	.	.
16aa/	.	.	.
16gg/	8g\J	.	.
[16ffn/JJ	.	.	.
16ff/LL]	8ccn\L	.	.
16ee/J	.	.	.
8dd/J)	16cc\L	.	.
.	16b\JJ)	.	.
=95	=95	=95	=95
(16ccn/KL	(8cc\L	.	.
8dd/	.	.	.
.	16a\L	.	.
8dd/J	16f#X\JJ	.	.
.	16d\LL	.	.
16cccnLL 16cc/)	16e-X\)	.	.
16bb-X 16cc`/	16d`\	.	.
16aaJJ 16cc`/	16d`\JJ	.	.
=96	=96	=96	=96
(16gg/LL	(16b-XLL 16d 16G\	.	.
16aa/	16ccn\	.	.
16bb-X/	16dd\	.	.
16bbb-X/JJ)	16ddd\JJ)	.	.
(16aaa/LL	(16cccn\LL	.	.
16fff#/	16aa\	.	.
16ddd/	16ff#\	.	.
16cccn/JJ)	16dd\JJ)	.	.
=97	=97	=97	=97
(16bb-X/LL	(16gg\LL	.	.
16cccn/	16aa\	.	.
16ccc#X/	16aa\	.	.
16ddd/JJ	[16bb-X\JJ	.	.
8cccn/L	16bb-\LL]	.	.
.	16aa\	.	.
8eee-X/J)	16gg\	.	.
.	16ffn\JJ)	.	.
!!LO:LB:g=original
=98	=98	=98	=98
*xywh-8:449,4230,3550,802	*xywh-8:449,4230,3550,802	*	*
(16ddd/LL	(16bb-X\LL	.	.
16eee-X/	16cccn\	.	.
16eeen/	16ccc#X\	.	.
16fffn/JJ	[16ddd\JJ	.	.
8eee/L	16ddd\LL]	.	.
.	16ccc#\	.	.
8ggg/J)	16bb-\	.	.
.	16aa\JJ)	.	.
=99	=99	=99	=99
(16fff#X/LL	(16ddd\LL	.	.
16aaa/	16cccn\	.	.
16ggg/	16bbn\	.	.
!	!LO:SIC:s=16ggJJ	!	!
16fffn/J	16gg\JJ)	.	.
!	!LO:SIC:s=16cccLL	!	!
16eee/L	(16ccc\LL	.	.
16ggg/	16bb-X\	.	.
16fff/	16aa\	.	.
16eee-X/JJ)	16ffn\JJ)	.	.
=100	=100	=100	=100
16ddd`/LL	16bb-X`\LL	.	.
(16fffn/	(16gg#X\	.	.
16ddd/	16ffn\	.	.
16bbn/J	16dd\J	.	.
16gg#X/L	16bn\L	.	.
16ffn/	16g#X\	.	.
16dd/	16fn\	.	.
16b/JJ	16d\JJ	.	.
=101	=101	=101	=101
16g#X/LL)	16B\LL)	.	.
(16fn/	(16G#X\	.	.
16d/	16G#\	.	.
16f/J	16G#\J	.	.
16b/L	16d\L	.	.
16dd/	16fn\	.	.
16ffn/	16dd\	.	.
16ddd/JJ	16ffn\JJ	.	.
!!LO:PB:g=original
=102	=102	=102	=102
*xywh-9:135,388,3585,840	*xywh-9:135,388,3585,840	*	*
!	!LO:TX:b:t=P:problem:brak zakończenia łuku	!	!
16ddd/LL)	16ff#X\LL)	.	.
(16aa/	(16ff#\	.	.
16ff#X/	16dd\	.	.
16dd/	16a\JJ	.	.
16a/	16f#\LL	.	.
16f#/	16d\	.	.
16d/	16A\	.	.
16ddd/JJ)	16ff#\JJ)	.	.
=103	=103	=103	=103
16ccc#`/LL	16aa`\LL	.	.
(16aa/	(16ee\	.	.
16ee/	16cc#\	.	.
16cc#/	16a\JJ	.	.
16a/	16e\LL	.	.
16e/	16c#\	.	.
16e/	16A\	.	.
32ccc#/JJk)	32a\JJk)	.	.
!	!LO:MO:mod=32ryy	!	!
32rgg;	32rc;	.	.
=104	=104	=104	=104
(16f#/LL	(16d\LL	.	.
16g/	16e\	.	.
16g#X/	16e#X\	.	.
16a/JJ	[16f#\JJ	.	.
8gn/L	16f#\LL]	.	.
.	16en\	.	.
16b/L	16d\	.	.
16a/JJ)	16c#\JJ)	.	.
=105	=105	=105	=105
(16f#/LL	(16d\LL	.	.
16g/	16e\	.	.
16g#X/	16e#X\	.	.
16a/JJ	[16f#\JJ	.	.
8gn/L	16f#\LL]	.	.
.	16en\	.	.
16b-X/L	16d\	.	.
16a/JJ)	16c#\JJ)	.	.
!!LO:LB:g=original
=106	=106	=106	=106
*xywh-9:179,1120,3597,566	*xywh-9:179,1120,3597,566	*	*
*	*	*Xbelow	*
!LO:TX:b:i:t=Sul D:dur=4h:ext=ud:problem:text with extention lines:mod=sul D	!	!	!
(2a/	16d\LL	0	.
.	16e\	.	.
.	16f#\	.	.
.	16a\	.	.
.	16dd\	1	.
.	16ee\	.	.
.	16ff#\	1	.
.	16aa\JJ	.	.
=107	=107	=107	=107
*	*	*below	*
16ddd/LL)	2a\	4	.
16aa/	.	4	.
(16ff#/	.	3	.
16ee/	.	2	.
16dd/	.	1	.
16a/	.	4	.
16f#/	.	2	.
16e/JJ	.	1	.
=108	=108	=108	=108
2a/)	16d\LL	.	.
.	(>16e\	.	.
.	16f#\	.	.
.	16a\	.	.
.	16dd\	.	.
.	16ee\	.	.
.	16ff#\	.	.
.	16aa\JJ	.	.
=109	=109	=109	=109
16ddd/LL)	2a\	.	.
(16aa/	.	.	.
16ff#/	.	.	.
16ee/	.	.	.
16dd/	.	.	.
16a/	.	.	.
16f#/	.	.	.
16e/JJ)	.	.	.
*v	*v	*	*
!!LO:LB:g=original
=110	=110	=110
*xywh-9:71,1579,3712,490	*	*
*tuplet	*	*
!LO:TUP:a	!	!
(24d\LL	.	.
24dd\	.	.
24fff#\)J	.	.
(24fff#\L	.	.
24dd\	.	.
24d\JJ)	.	.
!LO:TUP:a	!	!
(24d\LL	.	.
24dd\	.	.
24fff#\)J	.	.
(24fff#\L	.	.
24dd\	.	.
24d\JJ)	.	.
=111	=111	=111
!LO:MO:mod=*null:null	!	!
*Xtuplet	*	*
(24d\LL	.	.
24ff#\	.	.
24aaa\)J	.	.
(24aaa\L	.	.
24ff#\	.	.
24d\JJ)	.	.
(24d\LL	.	.
24ff#\	.	.
24aaa\)J	.	.
(24aaa\L	.	.
24ff#\	.	.
24d\JJ)	.	.
=112	=112	=112
!LO:TX:t=P:problem:mixed beam	!	!
(24d/LL	.	.
24aa\	.	.
24dddd\)J	.	.
(24dddd\L	.	.
24aa\	.	.
24d/JJ)	.	.
!LO:TX:t=P:problem:mixed beam	!	!
(24d/LL	.	.
24aa\	.	.
24dddd\)J	.	.
(24dddd\L	.	.
24aa\	.	.
24d/JJ)	.	.
=113	=113	=113
!LO:TX:t=P:problem:mixed beam	!	!
(24d/LL	.	.
24ddd\	.	.
*8va	*	*
24ffff#\)J	.	.
(24ffff#\L	.	.
*X8va	*	*
24ddd\	.	.
24d/JJ)	.	.
!LO:TX:t=P:problem:mixed beam	!	!
(24d/LL	.	.
24ddd\	.	.
*8va	*	*
24ffff#\)J	.	.
(24ffff#\L	.	.
*X8va	*	*
24ddd\	.	.
24d/JJ)	.	.
!!LO:LB:g=original
=114	=114	=114
*xywh-9:160,1980,3489,509	*	*
!LO:TX:t=P:problem:mixed beam	!	!
(24d/LL	.	.
24cccn\	.	.
*8va	*	*
24ffff#\)J	.	.
(24ffff#\L	.	.
*X8va	*	*
24ccc\	.	.
24d/JJ)	.	.
!LO:TX:t=P:problem:mixed beam	!	!
(24d/LL	.	.
24ccc\	.	.
*8va	*	*
24ffff#\)J	.	.
(24ffff#\L	.	.
*X8va	*	*
24ccc\	.	.
24d/JJ)	.	.
=115	=115	=115
!LO:TX:b:i:t=Segue.:mod=	!	!
!LO:TX:t=P:problem:mixed beam	!	!
(24d/LL	.	.
24bb\	.	.
*8va	*	*
24gggg\)J	.	.
(24gggg\L	.	.
*X8va	*	*
24bb\	.	.
24d/JJ)	.	.
!LO:TX:t=P:problem:mixed beam	!	!
(24d/LL	.	.
24bb\	.	.
*8va	*	*
24gggg\)J	.	.
(24gggg\L	.	.
*X8va	*	*
24bb\	.	.
24d/JJ)	.	.
=116	=116	=116
!LO:TX:t=P:problem:mixed beam	!	!
(24d/LL	.	.
24bb-X\	.	.
*8va	*	*
24eeee\)J	.	.
(24eeee\L	.	.
*X8va	*	*
24bb-\	.	.
24d/JJ)	.	.
!LO:TX:t=P:problem:mixed beam	!	!
(24d/LL	.	.
24bb-\	.	.
*8va	*	*
24eeee\)J	.	.
(24eeee\L	.	.
*X8va	*	*
24bb-\	.	.
24d/JJ)	.	.
=117	=117	=117
!LO:TX:t=P:problem:mixed beam	!	!
!LO:SIC:s=(24dLL	!	!
24d/LL	.	.
24aa\	.	.
*8va	*	*
!LO:SIC:s=24ffff#J)	!	!
24ffff#\J	.	.
!LO:SIC:s=24ffff#L(	!	!
24ffff#\L	.	.
*X8va	*	*
24aa\	.	.
!LO:SIC:s=24dJJ)	!	!
24d/JJ	.	.
!LO:TX:t=P:problem:mixed beam	!	!
!LO:SIC:s=(24dLL	!	!
24d/LL	.	.
24aa\	.	.
*8va	*	*
!LO:SIC:s=24ffff#J)	!	!
24ffff#\J	.	.
!LO:SIC:s=24ffff#L(	!	!
24ffff#\L	.	.
*X8va	*	*
24aa\	.	.
!LO:SIC:s=24dJJ)	!	!
24d/JJ	.	.
!!LO:LB:g=original
=118	=118	=118
*xywh-9:160,2464,3438,458	*	*
!LO:TX:t=P:problem:mixed beam	!	!
!LO:SIC:s=(24dLL	!	!
24d/LL	.	.
24gg#X\	.	.
*8va	*	*
!LO:SIC:s=24ddddJ)	!	!
24dddd\J	.	.
!LO:SIC:s=(24ddddL	!	!
24dddd\L	.	.
*X8va	*	*
24gg#\	.	.
!LO:SIC:s=24dJJ)	!	!
24d/JJ	.	.
!LO:TX:t=P:problem:mixed beam	!	!
!LO:SIC:s=(24dLL	!	!
24d/LL	.	.
24gg#\	.	.
*8va	*	*
!LO:SIC:s=24ddddJ)	!	!
24dddd\J	.	.
!LO:SIC:s=(24ddddL	!	!
24dddd\L	.	.
*X8va	*	*
24gg#\	.	.
!LO:SIC:s=24dJJ)	!	!
24d/JJ	.	.
=119	=119	=119
!LO:TX:t=P:problem:mixed beam	!	!
!LO:SIC:s=(24dLL	!	!
24d/LL	.	.
24ggn\	.	.
*8va	*	*
!LO:SIC:s=24eeeeJ)	!	!
24eeee\J	.	.
!LO:SIC:s=24eeeeL(	!	!
24eeee\L	.	.
*X8va	*	*
24gg\	.	.
!LO:SIC:s=24dJJ)	!	!
24d/JJ	.	.
!LO:TX:t=P:problem:mixed beam	!	!
!LO:SIC:s=(24dLL	!	!
24d/LL	.	.
24gg\	.	.
*8va	*	*
!LO:SIC:s=24eeeeJ)	!	!
24eeee\J	.	.
!LO:SIC:s=24eeeeL(	!	!
24eeee\L	.	.
*X8va	*	*
24gg\	.	.
!LO:SIC:s=24dJJ)	!	!
24d/JJ	.	.
=120	=120	=120
!LO:TX:t=P:problem:mixed beam	!	!
!LO:SIC:s=(24dLL	!	!
24d/LL	.	.
24gg\	.	.
!LO:SIC:s=24bbbJ)	!	!
24bbb\J	.	.
!LO:SIC:s=24bbbL(	!	!
24bbb\L	.	.
24gg\	.	.
!LO:SIC:s=24dJJ)	!	!
24d/JJ	.	.
!LO:TX:t=P:problem:mixed beam	!	!
!LO:SIC:s=(24dLL	!	!
24d/LL	.	.
24gg\	.	.
!LO:SIC:s=24cccc#J)	!	!
24cccc#\J	.	.
!LO:SIC:s=24cccc#L(	!	!
24cccc#\L	.	.
24gg\	.	.
!LO:SIC:s=24dJJ)	!	!
24d/JJ	.	.
=121	=121	=121
!LO:TX:t=P:problem:mixed beam	!	!
!LO:SIC:s=(24dLL	!	!
24d/LL	.	.
24ff#\	.	.
*8va	*	*
!LO:SIC:s=24ddddJ)	!	!
24dddd\J	.	.
!LO:SIC:s=(24ddddL	!	!
24dddd\L	.	.
*X8va	*	*
24ff#\	.	.
!LO:SIC:s=24dJJ)	!	!
24d/JJ	.	.
!LO:TX:t=P:problem:mixed beam	!	!
!LO:SIC:s=(24dLL	!	!
24d/LL	.	.
24ff#\	.	.
*8va	*	*
!LO:SIC:s=24ddddJ)	!	!
24dddd\J	.	.
!LO:SIC:s=(24ddddL	!	!
24dddd\L	.	.
*X8va	*	*
24ff#\	.	.
!LO:SIC:s=24dJJ)	!	!
24d/JJ	.	.
!!LO:LB:g=original
=122	=122	=122
*xywh-9:186,2878,3489,477	*	*
!LO:TX:t=P:problem:mixed beam	!	!
!LO:SIC:s=(24dLL	!	!
24d/LL	.	.
24cccn\	.	.
*8va	*	*
!LO:SIC:s=24ffff#J)	!	!
24ffff#\J	.	.
!LO:SIC:s=(24ffff#L	!	!
24ffff#\L	.	.
*X8va	*	*
24ccc\	.	.
!LO:SIC:s=24dJJ)	!	!
24d/JJ	.	.
!LO:TX:t=P:problem:mixed beam	!	!
!LO:SIC:s=(24dLL	!	!
24d/LL	.	.
24ccc\	.	.
*8va	*	*
!LO:SIC:s=24aaaaJ)	!	!
24aaaa\J	.	.
!LO:SIC:s=24aaaa(L	!	!
24aaaa\L	.	.
*X8va	*	*
24ccc\	.	.
!LO:SIC:s=24dJJ)	!	!
24d/JJ	.	.
=123	=123	=123
!LO:TX:t=P:problem:mixed beam	!	!
!LO:SIC:s=(24dLL	!	!
24d/LL	.	.
24bb\	.	.
*8va	*	*
!LO:SIC:s=24aaaaJ)	!	!
24aaaa\J	.	.
!LO:SIC:s=24aaaa(L	!	!
24aaaa\L	.	.
*X8va	*	*
24bb\	.	.
!LO:SIC:s=24dJJ)	!	!
24d/JJ	.	.
!LO:TX:t=P:problem:mixed beam	!	!
!LO:SIC:s=(24dLL	!	!
24d/LL	.	.
24bb\	.	.
*8va	*	*
!LO:SIC:s=24gggg#J)	!	!
24gggg#X\J	.	.
!LO:SIC:s=24gggg#L(	!	!
24gggg#\L	.	.
*X8va	*	*
24bb\	.	.
!LO:SIC:s=24dJJ)	!	!
24d/JJ	.	.
=124	=124	=124
!LO:TX:t=P:problem:mixed beam	!	!
!LO:SIC:s=(24dLL	!	!
24d/LL	.	.
24bb-X\	.	.
*8va	*	*
!LO:SIC:s=24eeeeJ)	!	!
24eeee\J	.	.
!LO:SIC:s=24eeeeL(	!	!
24eeee\L	.	.
*X8va	*	*
24bb-\	.	.
!LO:SIC:s=24dJJ)	!	!
24d/JJ	.	.
!LO:TX:t=P:problem:mixed beam	!	!
!LO:SIC:s=(24dLL	!	!
24d/LL	.	.
24bb-\	.	.
*8va	*	*
!LO:SIC:s=24ggggJ)	!	!
24ggggn\J	.	.
!LO:SIC:s=24ggggL(	!	!
24gggg\L	.	.
*X8va	*	*
24bb-\	.	.
!LO:SIC:s=24dJJ)	!	!
24d/JJ	.	.
=125	=125	=125
!LO:TX:t=P:problem:mixed beam	!	!
!LO:SIC:s=(24dLL	!	!
24d/LL	.	.
24aa\	.	.
*8va	*	*
!LO:SIC:s=24ggggJ)	!	!
24gggg\J	.	.
!LO:SIC:s=24ggggL(	!	!
24gggg\L	.	.
*X8va	*	*
24aa\	.	.
!LO:SIC:s=24dJJ)	!	!
24d/JJ	.	.
!LO:TX:t=P:problem:mixed beam	!	!
!LO:SIC:s=(24dLL	!	!
24d/LL	.	.
24aa\	.	.
*8va	*	*
!LO:SIC:s=24ffff#J)	!	!
24ffff#\J	.	.
!LO:SIC:s=(24ffff#L	!	!
24ffff#\L	.	.
*X8va	*	*
24aa\	.	.
!LO:SIC:s=24dJJ)	!	!
24d/JJ	.	.
!!LO:LB:g=original
=126	=126	=126
*xywh-9:192,3349,3425,464	*	*
!LO:TX:t=P:problem:mixed beam	!	!
!LO:SIC:s=(24dLL	!	!
24d/LL	.	.
24gg#X\	.	.
*8va	*	*
!LO:SIC:s=24ddddJ)	!	!
24dddd\J	.	.
!LO:SIC:s=(24ddddL	!	!
24dddd\L	.	.
*X8va	*	*
24gg#\	.	.
!LO:SIC:s=24dJJ)	!	!
24d/JJ	.	.
!LO:TX:t=P:problem:mixed beam	!	!
!LO:SIC:s=(24dLL	!	!
24d/LL	.	.
24gg#\	.	.
*8va	*	*
!LO:SIC:s=24ffff#J)	!	!
24ffff#\J	.	.
!LO:SIC:s=(24ffff#L	!	!
24ffff#\L	.	.
*X8va	*	*
24gg#\	.	.
!LO:SIC:s=24dJJ)	!	!
24d/JJ	.	.
=127	=127	=127
!LO:TX:t=P:problem:mixed beam	!	!
!LO:SIC:s=(24dLL	!	!
24d/LL	.	.
24ggn\	.	.
*8va	*	*
!LO:SIC:s=24ffff#J)	!	!
24ffff#\J	.	.
!LO:SIC:s=(24ffff#L	!	!
24ffff#\L	.	.
*X8va	*	*
24gg\	.	.
!LO:SIC:s=24dJJ)	!	!
24d/JJ	.	.
!LO:TX:t=P:problem:mixed beam	!	!
!LO:SIC:s=(24dLL	!	!
24d/LL	.	.
24gg\	.	.
*8va	*	*
!LO:SIC:s=24eeeeJ)	!	!
24eeee\J	.	.
!LO:SIC:s=24eeeeL(	!	!
24eeee\L	.	.
*X8va	*	*
24gg\	.	.
!LO:SIC:s=24dJJ)	!	!
24d/JJ	.	.
=128	=128	=128
!LO:TX:t=P:problem:mixed beam	!	!
!LO:SIC:s=(24dLL	!	!
24d/LL	.	.
24gg\	.	.
!LO:SIC:s=24bbbJ)	!	!
24bbb\J	.	.
!LO:SIC:s=24bbbJL(	!	!
24bbb\L	.	.
24gg\	.	.
!LO:SIC:s=24dJJ)	!	!
24d/JJ	.	.
!LO:TX:t=P:problem:mixed beam	!	!
!LO:SIC:s=(24dLL	!	!
24d/LL	.	.
24gg\	.	.
!LO:SIC:s=24cccc#J)	!	!
24cccc#\J	.	.
!LO:SIC:s=24cccc#L(	!	!
24cccc#\L	.	.
24gg\	.	.
!LO:SIC:s=24dJJ)	!	!
24d/JJ	.	.
=129	=129	=129
!LO:TX:t=P:problem:mixed beam	!	!
!LO:SIC:s=(24dLL	!	!
24d/LL	.	.
24ff#\	.	.
!LO:SIC:s=24ddddJ)	!	!
24dddd\J	.	.
!LO:SIC:s=(24ddddL	!	!
24dddd\L	.	.
24ff#\	.	.
!LO:SIC:s=24dJJ)	!	!
24d/JJ	.	.
!LO:TX:t=P:problem:mixed beam	!	!
!LO:SIC:s=(24dLL	!	!
24d/LL	.	.
24ff#\	.	.
!LO:SIC:s=24ddddJ)	!	!
24dddd\J	.	.
!LO:SIC:s=(24ddddL	!	!
24dddd\L	.	.
24ff#\	.	.
!LO:SIC:s=24dJJ)	!	!
24d/JJ	.	.
!!LO:LB:g=original
=130	=130	=130
*xywh-9:179,3807,3381,433	*	*
!LO:TX:t=P:problem:mixed beam	!	!
!LO:SIC:s=(24dLL	!	!
24d/LL	.	.
24gg\	.	.
*8va	*	*
!LO:SIC:s=24eeee-J)	!	!
24eeee-X\J	.	.
!LO:SIC:s=24eeee-L(	!	!
24eeee-\L	.	.
*X8va	*	*
24gg\	.	.
!LO:SIC:s=24dJJ)	!	!
24d/JJ	.	.
!LO:TX:t=P:problem:mixed beam	!	!
!LO:SIC:s=(24dLL	!	!
24d/LL	.	.
24gg\	.	.
*8va	*	*
!LO:SIC:s=24cccc#J)	!	!
24cccc#\J	.	.
!LO:SIC:s=24cccc#L(	!	!
24cccc#\L	.	.
*X8va	*	*
24gg\	.	.
!LO:SIC:s=24dJJ)	!	!
24d/JJ	.	.
=131	=131	=131
!LO:TX:t=P:problem:mixed beam	!	!
!LO:SIC:s=(24dLL	!	!
24d/LL	.	.
24ff#\	.	.
*8va	*	*
!LO:SIC:s=24ddddJ)	!	!
24dddd\J	.	.
!LO:SIC:s=(24ddddL	!	!
24dddd\L	.	.
*X8va	*	*
24ff#\	.	.
!LO:SIC:s=24dJJ)	!	!
24d/JJ	.	.
!LO:TX:t=P:problem:mixed beam	!	!
!LO:SIC:s=(24dLL	!	!
24d/LL	.	.
24ff#\	.	.
*8va	*	*
!LO:SIC:s=24ddddJ)	!	!
24dddd\J	.	.
!LO:SIC:s=(24ddddL	!	!
24dddd\L	.	.
*X8va	*	*
24ff#\	.	.
!LO:SIC:s=24dJJ)	!	!
24d/JJ	.	.
=132	=132	=132
!LO:TX:t=P:problem:mixed beam	!	!
!LO:SIC:s=(24dLL	!	!
24d/LL	.	.
24gg\	.	.
*8va	*	*
!LO:SIC:s=24eeee-J)	!	!
24eeee-X\J	.	.
!LO:SIC:s=24eeee-L(	!	!
24eeee-\L	.	.
*X8va	*	*
24gg\	.	.
!LO:SIC:s=24dJJ)	!	!
24d/JJ	.	.
!LO:TX:t=P:problem:mixed beam	!	!
!LO:SIC:s=(24dLL	!	!
24d/LL	.	.
24gg\	.	.
*8va	*	*
!LO:SIC:s=24cccc#J)	!	!
24cccc#\J	.	.
!LO:SIC:s=24cccc#L(	!	!
24cccc#\L	.	.
*X8va	*	*
24gg\	.	.
!LO:SIC:s=24dJJ)	!	!
24d/JJ	.	.
=133	=133	=133
!LO:TX:t=P:problem:mixed beam	!	!
!LO:SIC:s=(24dLL	!	!
24d/LL	.	.
24ff#\	.	.
*8va	*	*
!LO:SIC:s=24ddddJ)	!	!
24dddd\J	.	.
!LO:SIC:s=(24ddddL	!	!
24dddd\L	.	.
*X8va	*	*
24ff#\	.	.
!LO:SIC:s=24dJJ)	!	!
24d/JJ	.	.
!LO:TX:t=P:problem:mixed beam	!	!
!LO:SIC:s=(24dLL	!	!
24d/LL	.	.
24ff#\	.	.
*8va	*	*
!LO:SIC:s=24ddddJ)	!	!
24dddd\J	.	.
!LO:SIC:s=(24ddddL	!	!
24dddd\L	.	.
*X8va	*	*
24ff#\	.	.
!LO:SIC:s=24dJJ)	!	!
24d/JJ	.	.
!!LO:LB:g=original
=134	=134	=134
*xywh-9:186,4202,3476,783	*	*
!LO:TX:b:i:t=morendo:dur=6h:ext=ud:problem:text with extention lines	!	!
!LO:SIC:s=(24dLL	!	!
24d\LL	.	.
24ff#\	.	.
!LO:SIC:s=24ddddJ)	!	!
24dddd\J	.	.
!LO:SIC:s=(24ddddL	!	!
24dddd\L	.	.
24ff#\	.	.
!LO:SIC:s=24dJJ)	!	!
24d\JJ	.	.
!LO:SIC:s=(24dLL	!	!
24d\LL	.	.
24ff#\	.	.
!LO:SIC:s=24ddddJ)	!	!
24dddd\J	.	.
!LO:SIC:s=(24ddddL	!	!
24dddd\L	.	.
24ff#\	.	.
!LO:SIC:s=24dJJ)	!	!
24d\JJ	.	.
=135	=135	=135
(32dd\LLL	3 0	.
32aa\	3 0	.
32ff#\	1	.
32dddd\)	4	.
(32dddd\	.	.
32ff#\	.	.
32aa\	.	.
32dd\JJJ)	.	.
(32dd\LLL	.	.
32aa\	.	.
32ff#\	.	.
32dddd\)	.	.
(32dddd\	.	.
32ff#\	.	.
32aa\	.	.
32dd\JJJ)	.	.
=136	=136	=136
(32dd\LLL	.	p
32aa\	.	.
32ff#\	.	.
32dddd\)	.	.
(32dddd\	.	.
32ff#\	.	.
32aa\	.	.
32dd\JJJ)	.	.
(32dd\LLL	.	.
32aa\	.	.
32ff#\	.	.
32dddd\)	.	.
(32dddd\	.	.
32ff#\	.	.
32aa\	.	.
32dd\JJJ)	.	.
=137	=137	=137
8dd;\	.	pp
8r	.	.
4r;	.	.
==	==	==
*-	*-	*-
!!!RDF**kern: > = above
!!!RDF**kern: < = below
!!!filter-modern: sic -sq  | shed -k -e "s/r[a-gA-G]+/r/D" | shed -k -e "s/:TUP:/:tup:/L" | autostem -r  | modori -m
!!!ENC: Andrzej Kubiczek
!!!END: 2022-05-07
!!!ENC: Andrzej Kubiczek
!!!END: 2022-05-08
!!!ENC-modern: Andrzej Borzym
!!!END-modern: 2022-07-20
!!!IIIF: https://polona.pl/iiif/item/MTE2OTgzMTMy/manifest.json
!!!ENC-iiif: Natalia Wrzos
!!!END-iiif: 2022-08-30
!!!YEC: Copyright 2022 Narodowy Instytut Fryderyka Chopina (https://polishscores.org)
!!!YEM: License CC-BY-4.0 (https://creativecommons.org/licenses/by/4.0)
